!!!COM: Palestrina, Giovanni Perluigi da
!!!OPR: Missa In semidupl. maj. (I)
!!!OMD: Gloria
!!!OTL: Domine Deus Rex
**kern	**kern	**kern	**kern
*Ibass	*Itenor	*Icalto	*Icant
!Bassus	!Tenor	!Altus	!Cantus
*clefF4	*clefGv2	*clefG2	*clefG2
*k[b-]	*k[b-]	*k[b-]	*k[b-]
*F:ion	*F:ion	*F:ion	*F:ion
*M4/2	*M4/2	*M4/2	*M4/2
=36	=36	=36	=36
0r	0r	1r	1f
.	.	1c	1cc
=37	=37	=37	=37
0r	0r	1f	2cc
.	.	.	2cc
.	.	2f	2.cc
.	.	2f	.
.	.	.	4b-
=38	=38	=38	=38
0r	1F	1f	4a
.	.	.	4g
.	.	.	1a
.	1c	2.e	.
.	.	.	4g
.	.	4d	4f
=39	=39	=39	=39
0r	2c	4e	2g
.	.	4f	.
.	2c	1e	2a
.	1c	.	[1g
.	.	4d	.
.	.	4c	.
=40	=40	=40	=40
0r	2B	2d	1g]
.	1c	2e	.
.	.	2c	2e
.	4B-	2d	2f
.	4A	.	.
=41	=41	=41	=41
0r	2G	2e	2g
.	2F	2f	2.a
.	1A	1c	.
.	.	.	4g
.	.	.	[2f
=42	=42	=42	=42
1C	1G	2r	2f]
.	.	2c	2e
1F	1F	2c	2f
.	.	2c	2a
=43	=43	=43	=43
2F	2r	2.c	2a
2F	2c	.	2a
.	.	4B-	.
1F	2c	4A	1a
.	.	4G	.
.	2c	2F	.
=44	=44	=44	=44
2E	1c	2G	2g
1F	.	2F	1a
.	2F	1c	.
4E	2G	.	4g
4D	.	.	4f
=45	=45	=45	=45
2C	2A	2c	2e
2BB-	2.B-	1d	2g
1D	.	.	2f
.	4A	.	.
.	2F	2B-	[2f
=46	=46	=46	=46
1C	1G	1c	2f]
.	.	.	2e
1FF	2.F	2r	2f
.	.	[2c	[2a
.	4E	.	.
=47	=47	=47	=47
2r	1D	2c]	2a]
1F	.	2B-	4g
.	.	.	4f
.	1C	1c	2a
2E	.	.	2g
=48	=48	=48	=48
1F	0r	2A	2.a
.	.	1F	.
.	.	.	4g
2D	.	.	4f
.	.	.	4e
2BB-	.	[2G	2d
=49	=49	=49	=49
1C	2r	2G]	1e
.	1c	2A	.
2.D	.	2F	1f
.	2B-	[2f	.
4D	.	.	.
=50	=50	=50	=50
1C	1c	2f]	0r
.	.	2e	.
1r	2A	1f	.
.	2F	.	.
=51	=51	=51	=51
0r	1G	2d	1r
.	.	2B-	.
.	2.A	1c	2r
.	.	.	[2cc
.	4A	.	.
=52	=52	=52	=52
0r	2G	2.d	2cc]
.	2G	.	2b-
.	.	4d	.
.	2A	[1c	1cc
.	2E	.	.
=53	=53	=53	=53
2r	2.F	1c_	2a
1F	.	.	2f
.	8E	.	.
.	8D	.	.
.	1C	1c_	1g
2E	.	.	.
=54	=54	=54	=54
1F	2r	1c]	1.a
.	2c	.	.
2D	1d	2r	.
2BB-	.	[2f	2b-
=55	=55	=55	=55
1C	1c	2f]	2a
.	.	2e	2.g
1D	2A	2d	.
.	.	.	4f
.	2F	2A	[2f
=56	=56	=56	=56
1C	1G	1c	2f]
.	.	.	2e
1BB-	1B-	2d	2.f
.	.	2d	.
.	.	.	4g
=57	=57	=57	=57
[0FF	[0c	[0f	[0a
=58	=58	=58	=58
0FF]	0c]	0f]	0a]
*-	*-	*-	*-
!!!CDT: 1525/^1526/-1594/2/2
!!!OCY: Italia
!!!AGN: Mass (Paraphrase)
!!!AST: renaissance, vocal
!!!ASW: Gregorian Mass
!!!PWK: Masses, Book Mantuan II
!!!RNB: Cadence finals: C
!!!YOR: Le Opere Complete, v. 19, p. 129
!!!YOO: Rome, Italy: Fratelli Scalera
!!!END: 1992//
!!!EED: John Miller
!!!YEC: Copyright 2000, John Miller
!!!YEN: United States of America
!!!YEM: Rights to all derivative electronic formats reserved.
!!!YEM: Refer to licensing agreement for further details.
!!!YEM: This file must be accompanied by the licensing agreement.
!!!YEM: A copy of the licensing agreement may be found at http://www.music-cog.ohio-state.edu/HumdrumDatabases/Palestrina/license.txt
!!!EMD: converted to Humdrum by Bret Aarden
